X:1
T:Title
%%score { ( 1 4 ) | ( 2 3 ) }
L:1/8
M:4/4
K:Bb
V:1 treble nm="Grand Piano"
V:4 treble 
V:2 bass 
V:3 bass 
V:1
 z4 z2[Q:1/4=100] [DF]2 | [DF]2 [DFB]2 [DFB][FA][DFc][FB] | A6 z2 | e4 d4 | %4
 [Ec][DB][DB][EG] [DF]2 [DF]2 | [DF]2 [DFB]2 [DFB][FA][DFc][FB] | G6[K:bass] z2[K:treble] | d4 z4 | %8
[M:3/4] [DB]6 |[M:1/4] [DF]>[DF] |[M:4/4] [EG]2 [GB]>[GB] [Ge]2 [EG]>[EG] | %11
[M:3/4] [DF]>[DB] [DB]>[Ec] [Fd]2 |[M:1/4] [Ge]2 |[M:4/4] d>c c>G c2 d2 | %14
[M:3/4] [Ec]>[DB] [DB]>[DF] [DB]2 |[M:1/4] [DF]>[DF] |[M:4/4] [EG]2 [GB]>[GB] [Ge]2 [EG]>[EG] | %17
[M:3/4] [DF]>[DB] [DB]>[Ec] [Fd]2 |[M:1/4] [Ge]>[Fd] |[M:4/4] d2 z2 z4 |[M:3/4] [DB]6 |] %21
V:2
 z4 z2 B,,2 | B,,2 F,2 z D z D | C,2 z z/ E/ C,2 z2 | z [F,A,] .[F,A,]2 z [F,A,][F,A,][F,E] | %4
 [B,,F,][B,,F,][B,,B,][B,,B,] [B,,B,]2 B,,2 | B,,2 F,2 z D z D | [E,,E,]2 B,>B, E,,2 z2 | %7
 z [F,B,][F,B,][F,B,D] [F,A,F][F,A,E][F,A,E][F,CE] |[M:3/4] [B,,B,]6 |[M:1/4] [B,,B,]>[B,,B,] | %10
[M:4/4] [E,B,]2 [E,B,]>[E,B,] [E,B,]2 [E,B,]>[E,B,] | %11
[M:3/4] [B,,B,]>[B,,F,] [B,,F,]>[B,,F,] [B,,B,]2 |[M:1/4] [B,,B,]2 | %13
[M:4/4] [F,A,F]>[F,A,E] [F,A,E]>[F,CE] [F,A,E]2 [F,F]2 | %14
[M:3/4] [B,,F,]>[B,,F,] [B,,F,]>[B,,B,] [B,,F,]2 |[M:1/4] [B,,B,]>[B,,B,] | %16
[M:4/4] [E,B,]2 [E,B,]>[E,B,] [E,B,]2 [E,B,]>[E,B,] | %17
[M:3/4] [B,,B,]>[B,,F,] [B,,F,]>[B,,F,] [B,,B,]2 |[M:1/4] [B,,B,]>[B,,B,] | %19
[M:4/4] [C,B,]2 [C,G,]>[C,B,] [F,A,F]2 [F,A,E]>[F,E] |[M:3/4] [B,,F,]6 |] %21
V:3
 x8 | z4 D,2 B,,2 | z2 F,,2 z4 | x8 | x8 | z4 D,2 B,,2 | z2 B,,2 z4 | x8 |[M:3/4] x6 |[M:1/4] x2 | %10
[M:4/4] x8 |[M:3/4] x6 |[M:1/4] x2 |[M:4/4] x8 |[M:3/4] x6 |[M:1/4] x2 |[M:4/4] x8 |[M:3/4] x6 | %18
[M:1/4] x2 |[M:4/4] x8 |[M:3/4] x6 |] %21
V:4
 x8 | x8 | [EF]2 [EF]>F [EF]2 z F | z FFF z FFc | x8 | x8 | %6
 [B,E]2 E>E[K:bass] [E,B,E]2 z[K:treble] e | z FFB dccA |[M:3/4] x6 |[M:1/4] x2 |[M:4/4] x8 | %11
[M:3/4] x6 |[M:1/4] x2 |[M:4/4] x8 |[M:3/4] x6 |[M:1/4] x2 |[M:4/4] x8 |[M:3/4] x6 |[M:1/4] x2 | %19
[M:4/4] =E->[Ec] [EB]>[EG] d2 c>c |[M:3/4] x6 |] %21

